X: 1012
M: 2/4
L: 1/16
K: F
z2 |\
|: c2 |\
a2gf edcB | A2B2c2z2 | c3e gege | c3f afaf |\
a2gf edcB | A2B2c2z2 | c3e geag | f4 z2 H:|
|: f2 |\
e2 c2d2 d2 | c2 A2c2 c2 | B2 G2A2 G2 | A2B2c2 f2 |\
e2 c2d2 d2 | c2 A2c2 c2 | B2z2 a2g2 | f4 z2 :|
|:[K:C] G2 |\
|: cd |\
ed3 A3B | c2e2 G4 | dcBc d2e2 | f2^f2 g4 |\
ed3 A3B | c2e2 G4 | dcBc d2e2 | c4 "^da Capo"z2 :|

